X:1
T:James Gibb editions
T:Salve Regina - Grassi
T:#
%%score { 1 | 2 } 3
L:1/8
Q:1/4=104
M:4/4
K:G
V:1 treble nm="Soprano I" snm="S"
V:2 treble 
V:3 treble nm="Alto" snm="A"
V:1
"^Salve Regina, op.17/4""^Ciro Grassi\n (1868-1952)""^dolce"!f! G4 d3 d | (c2 Bc!>(! A4)!>)! | %2
w: Sal- ve Re-|gi\- * * *|
 !fermata!G8 ||"^moderato"!p![Q:1/4=90] d4"^," d2 d2 | c2 A2 B3 c |"^," d4 (!>!d3 c) | B6 d2 | %7
w: na,|Ma- ter mi-|se- ri- cor- di-|ae, vi\- *|ta dul-|
[M:4/4][Q:1/4=90][Q:1/4=90] d4 c2 A2 |"^," G2 (d4 e2 | f2 ed e4) | !fermata!d8 |!p! (A4 d3 c | %12
w: ce- do et|spes no\- *||stra,|sal\- * *|
 B2 cB!>(! A4)!>)! | !fermata!G8 || z2!f! d2 d2!<(! d2 | g4!<)! =f4 |!>(! _e3 e!>)! d2 G2 | %17
w: |ve.|Ad te cla-|ma- mus,|ex- su- les fi-|
 c2"^," _e2 (A4 | _B4) c4- |"^," c2 d2!<(! d2 dd | (g4 =f4!<)! | _e4"^," d2 e2 | %22
w: li- i He\-|* vae.|* Ad te su- spi-|ra *|* mus, ge-|
!>(! (d3 c)!>)! _B2 _e2 | A3 _B c2 d2 | _e4"^," d3!f! d | =f2 _ed f2[Q:1/4=89] e[Q:1/4=87]d) | %26
w: men\- * tes et|flen\- * * *|* tes in|hac la- cri- ma- rum *|
"^rall."[Q:1/4=83] c4[Q:1/4=80] !fermata!d4 ||[Q:1/4=80]!p![Q:1/4=80] d3 d d2 F2 | %28
w: val- le.|E- ia er- go,|
 d3!<(! e c2 B2!<)! | (A4!>(! B4)!>)! |"^," A4 A2 B2 | (c4 d4) |"^," e2 G2 G2 A2 | c2 c2 d3 d | %34
w: ad- vo- ca- ta|no\- *|stra, il- los|tu\- *|os mi- se- ri-|cor- des o- cu-|
"^," e2!>(! e2 d2 c2!>)! | (A4 d2 c2) |"^," B2!pp! e2 e4- |!<(! e8!<)! |"^,"!>(! =f4 d2 d2!>)! | %39
w: los, ad nos con-|ver\- * *|te. Et Je\-||sum, be- ne-|
 d8 |"^," e4 G2 A2 | c4 c4 | (c2 B2) A4 | !^!d4 d4- | d2!<(! d2 e2 f2 | g3 g!<)!"^," g2 d2 | %46
w: di-|ctum fru- ctum|ven- tris|tu\- * i,|no- bis|* post hoc ex-|si- li- um o-|
 (d2!>(! e2)"^," c2"^rall."[Q:1/4=79] d2 |[Q:1/4=77] (c3[Q:1/4=76] B[Q:1/4=75] A4)!>)! | %48
w: sten\- * de o-|sten\- * *|
[Q:1/4=75]"^,"[Q:1/4=73][Q:1/4=75] !fermata!G4[Q:1/4=10][Q:1/4=10]"^tempo a\npiacere"[Q:1/4=72]!<(! B4!<)! | %49
w: de. O|
 e4!>(! d4-!>)! | !fermata!d4!<(! B4!<)! | c4!>(! A4-!>)! | %52
w: cle- mens,|* O|pi- a,|
 !fermata!A2"^a tempo"[Q:1/4=80] D2 E2 F2 | G2 BB (edcB |!>(! A4)!>)! B4- | !fermata!B8 |] %56
w: * O dul- cis|Vir- go Ma- ri\- * * *|* a.||
V:2
!f! G4 d3 d | (c2 Bc!>(! A4)!>)! | !fermata!G8 ||!p! B4"^," B2 A2 | G2 A2 G3 A | B4 z4 | %6
w: Sal- ve Re-|gi\- * * *|na,|Ma- ter mi-|se- ri- cor- di-|ae,|
 (!>!B3 A)"^," G2 A2 |[M:4/4] (!>!B3 A) G2 A2 |"^," B4 (A2 G2 | A2 d4 ^c2) | !fermata!d8 | %11
w: vi\- * ta dul-|ce\- * do et|spes no\- *||stra,|
!p! (A4 d3 =c | B2 cB!>(! A4)!>)! | !fermata!G8 || z2!f! _B2 B2 B2 | _B4 =B4 | c3 c =B2 G2 | %17
w: sal\- * *||ve.|Ad te cla-|ma- mus,|ex- su- les fi-|
 G2"^," G2 (G2 ^F2 | G4) A4- |"^," A2 _B2 B2 BB | _B2 c4 =B2 | c4"^," B2 c2 |!>(! F4!>)! G2 c2 | %23
w: li- i He\- *|* vae.|* Ad te su- spi-|ra * *|* mus, ge-|men- tes et|
 (F4 G4- | G2 A2)"^," _B3!f! B | d2 c_B d2 (cB) | A4 !fermata!_B4 || z4!p! d3 c | %28
w: flen\- *|* * tes in|hac la- cri- ma- rum *|val- le.|E- ia|
 =B2 G2!<(! EF G2-!<)! | G2 F2!>(! G4!>)! | F4 z4 | A2 c2 (c2 B2) | c6 z2 | c6 B2 | %34
w: er- go, ad- vo- ca\-|* ta no-|stra,|il- los tu\- *|os|o- cu-|
"^," c2 G2 =F2 G2 | (A4 B2 A2) | ^G6!pp! ^c2 | ^c8 | d4 z4 | d2 =c2 B4 | c4 z4 | c2 B2 A2 G2 | %42
w: los, ad nos con-|ver\- * *|te. Et|Je-|sum,|be- ne- di-|ctum|fru- ctum ven- tris|
 (F2 G2) F4 | !^!A4 B4- | B2 d2 d2 c2 | d3 d"^," d2 B2 | G4"^," G2 G2 | (G6 F2) | %48
w: tu\- * i,|no- bis|* post hoc ex-|si- li- um o-|sten- de o-|sten\- *|
"^," !fermata!G4!<(! G4!<)! | E4!>(! F4-!>)! | !fermata!F4!<(! G4!<)! | E4!>(! F4-!>)! | %52
w: de. O|cle- mens,|* O|pi- a,|
 !fermata!F2 D2 D2 D2 | (D2 GF) G4- | G2 F2 (E2 D2) | !fermata!D8 |] %56
w: * O dul- cis|Vir\- * * go|* Ma- ri\- *|a.|
V:3
!f! G4 d3 d | (c2 Bc!>(! A4)!>)! | !fermata!G8 ||!p! G4"^," G2 F2 | E2 F2 G3 G | G4 z4 | %6
w: Sal- ve Re-|gi\- * * *|na,|Ma- ter mi-|se- ri- cor- di-|ae,|
 (!>!G3 F)"^," E2 F2 |[M:4/4] (!>!G3 F) E2 F2 |"^," G4 F2!<(! (E2 | D2 B2!<)! A4) | %10
w: vi\- * ta dul-|ce\- * do et|spes no\- *||
!>(! !fermata!D8!>)! |!p! (A4 d3 c | B2 cB!>(! A4)!>)! | !fermata!G8 || z2!f! G2 G2 G2 | _E4 D4 | %16
w: stra,|sal\- * *||ve.|Ad te cla-|ma- mus,|
 (CD) (_E=F) G2 G2 | _E2"^," C2 (D4 | G4) =F4- |"^," F2 z2 G2 =F2 | _E3 E (D4 | CD_E=F) G2 z2 | %22
w: ex\- * su\- * les fi-|li- i He\-|* vae.|* Ad te|su- spi- ra\-|* * * * mus,|
 z4 z2 C2 | (D4 _E2 D2 | C4)"^," _B,3!f! _B | _B2 BB D2 _E2 | =F4 !fermata!_B,4 || z8 | z8 | %29
w: et|flen\- * *|* tes in|hac la- cri- ma- rum|val- le.|||
!p! D3 C B,A, !>!G,2 | D4 z4 | A2 A2 G4 | C6 z2 | A4 G4 |"^," C2 C2 D2 E2 | (=F4 D4) | E6 z2 | %37
w: ad- vo- ca- ta no-|stra,|il- los tu-|os|o- cu-|los, ad nos con-|ver\- *|te.|
 z2!pp! A2 A4 | D4 z4 | B2 A2 (G2 =F2 | E2 D2)"^," C4 | A2 G2 ^F2 E2 | (D2 ^C2) D4 | !^!F4 G4- | %44
w: Et Je-|sum,|be- ne- di\- *|* * ctum|fru- ctum ven- tris|tu\- * i,|no- bis|
 G2!<(! F2 G2 A2 | B3 B!<)!"^," B2 G2 | E4"^," E2 B,2 | (A,4 D4) |"^," !fermata!G,4!<(! E4!<)! | %49
w: * post hoc ex-|si- li- um o-|sten- de o-|sten\- *|de. O|
 C4 B,4- | !fermata!B,4!<(! E4!<)! | A,4!>(! D4-!>)! | !fermata!D2 D2 D2 C2 | (G,2 ED) C2 (ED) | %54
w: cle- mens,|* O|pi- a,|* O dul- cis|Vir\- * * go Ma\- *|
 (C2 D2) G,4- | !fermata!G,8 |] %56
w: ri\- * a.||

